X:183
T:MacGregor's March
S:Peurt a Beul, sung by Norman Kennedy
Z:Nigel Gatherer
N:Transposed to D for comparison
M:2/4
L:1/8
K:D
AA/B/ AA/B/|Ad dc|BB/c/ BB/c/|Be ec|AA/B/ AA/B/|
Ad de|f>a fe|d2 d2::ff a>f|ed B2|ee f>e|
dB A2|ff a>f|ed Bd|f>a fe|d2 d2:|
<end>
<start>
